src/icons/swc.svg

<svg width="16" height="16" viewBox="0 0 16 16" fill="none" xmlns="http://www.w3.org/2000/svg">
<path d="M9.8499 4.5H13.6999L10.8499 2.1C10.7499 2.05 10.5999 2 10.4999 2H8.8999L9.8499 4.5Z" fill="#AC4142"/>
<path d="M10 5.5V9H6V5.5H2V13.5C2 13.8 2.2 14 2.5 14H13.5C13.8 14 14 13.8 14 13.5V5.5H10Z" fill="#F07178"/>
<path d="M6.15005 4.5L7.10005 2H5.50005C5.40005 2 5.25005 2.05 5.20005 2.1L2.30005 4.5H6.15005Z" fill="#AC4142"/>
</svg>

<svg xmlns="http://www.w3.org/2000/svg" width="16" height="16" fill="none"><path fill="#AC4142" d="M9.85 4.5h3.85l-2.85-2.4c-.1-.05-.25-.1-.35-.1H8.9z"/><path fill="#F07178" d="M10 5.5V9H6V5.5H2v8c0 .3.2.5.5.5h11c.3 0 .5-.2.5-.5v-8z"/><path fill="#AC4142" d="M6.15 4.5 7.1 2H5.5c-.1 0-.25.05-.3.1L2.3 4.5z"/></svg>
